X: 39832
T: Thingummyjig Polka, The
R: barndance
M: 4/4
K: Gmajor
|:(3DEF|G2 B2 A>Bc>A|B2 d2 d4|e2 c2 c>de>c|d2 B2 B4|
c2 A2 A>Bc>A|B2 d2 d4|A>^GA>B ^c>AB>c|d2 D2 D2 (3DEF|
G2 B2 A>Bc>A|B2 d2 d4|e2 c2 c>de>c|d2 B2 B4|
c2 A2 A>Bc>A|B2 d2 d2 (3Bc^c|d2 d2 d2 e>f|g>g g2 g2:|
|:z2|e2 c2 g2 e2|d2 B2 B>^A B2|c2 A2 A>Bc>A|B2 c2 ^c2 d2|
e2 c2 g>f (3gfe|d2 B2 B>^A B2|A>^GA>B ^c>A (3ABc|(3ded [D2d2] [D2d2] (3DEF|
G2- G>B A>Bc>A|B2 d2 d4|e2 c2- c>d (3edc|d2 B2 B>^A B2|
c2 A2 A>Bc>A|B2 d2- d2 (3Bc^c|d2 (3ddd d2 e>f|(3ggg g2 g2:|
|:(3EFG|A2 F2 A>B c2|B2 G2 B>c d2|c2 A2 cd e2|d2 B2 B4|
^c2 A2 c>d e2|d2 A2 d>e f2|(3eee e2 e>gf>e|(3ddd [D2d2] [D2d2] D>F|
G2 B2 A2 (3cBA|B2 d2 [G4d4]|e2 c2 c2 (3edc|(3ded B2 B4|
c2 A2 A>Bc>A|B2 d2 [D2d2] (3Bc^c|(3ddd d2 d2 (3def|(3ggg g2 g2:|

